!!!COM:	Martini, Johannes
!!!CDT:	~1440///-~1497//
!!!OPR:	Missa Cela sans plus
!!!ONM:	1
!!!OTL:	Kyrie
!!!AGN:	Mass; Kyrie
!!!SCT:	Mar1001a
!!!SCA:	Mar1001a
!!!voices:	4
!!!voices-OPR:	4
**kern	**kern	**kern	**kern
*staff4	*staff3	*staff2	*staff1
*Ivox	*Ivox	*Ivox	*Ivox
*I"Bassus	*I"Tenor	*I"Altus	*I"Superius
*I'B	*I'T	*I'A	*I'S
*>[A,B,C]	*>[A,B,C]	*>[A,B,C]	*>[A,B,C]
*>A	*>A	*>A	*>A
*clefF4	*clefGv2	*clefGv2	*clefG2
*k[]	*k[]	*k[]	*k[]
*M2/1	*M2/1	*M2/1	*M2/1
*met(C)	*met(C)	*met(C)	*met(C)
!!section: Kyrie I
!!!OMD: Kyrie I
=1-	=1-	=1-	=1-
1.D	0r	0d	0r
[2F\	.	.	.
=2	=2	=2	=2
4F\]	0r	1c	0r
4E\	.	.	.
1A	.	.	.
.	.	1B	.
2G\	.	.	.
=3	=3	=3	=3
2A\	0r	2.A/	0a
1F	.	.	.
.	.	4B\	.
.	.	2c\	.
2D\	.	[2d\	.
=4	=4	=4	=4
1E	0r	2d\]	1g
.	.	2c#i\	.
1D	.	1d	1f
=5	=5	=5	=5
1.AA	0A	0c	1e
.	.	.	2r
[2C/	.	.	[2e/
=6	=6	=6	=6
4C/]	1G	1c	4e/]
4D\	.	.	4f/
2E\	.	.	2g/
1D	1F	1d	2a/
.	.	.	2f/
=7	=7	=7	=7
1.G	0E	2.e\	2.g/
.	.	4d\	4f/
.	.	2B\	4e/
.	.	.	4d/
[2C/	.	[2c\	[2e/
=8	=8	=8	=8
2C/]	0G	2c\]	2e/]
2D\	.	4B\	4d/
.	.	4A/	4c/
1E	.	2G/	2B/
.	.	2E/	2c/
=9	=9	=9	=9
0D	0F	2A/	2d/
.	.	2.d\	1A
.	.	4c\	.
.	.	4B\	2d/
.	.	4A/	.
=10	=10	=10	=10
1C	0E	2c\	2e/
.	.	4B\	2.c/
.	.	4A/	.
2r	.	1G	.
.	.	.	4B/
2C/	.	.	2c/
=11	=11	=11	=11
2.F\	0D	1A	1d
4G\	.	.	.
1A	.	2r	1f
.	.	[2d\	.
=12	=12	=12	=12
2B-i\	1r	2d\]	2g/
2A\	.	2c\	1a
1F	1D	2.d\	.
.	.	.	2b-i\
.	.	4c\	.
=13	=13	=13	=13
1D	1F	1A	2a/
.	.	.	4g/
.	.	.	4f/
2C/	2G/	2r	1e
[2AA/	[2A/	2E/	.
=14	=14	=14	=14
2AA/]	2A/]	2F/	2c/
2GG/	2B\	2G/	2d/
2C/	2A/	2E/	2e/
2D\	4G/	2D/	2f/
.	4F/	.	.
=15	=15	=15	=15
1E	2E/	4G/	2g/
.	.	4A/	.
.	2G/	2B\	2.e/
2AA/	2A/	2c\	.
.	.	.	4d/
2D\	2F/	[2A/	[2d/
=16	=16	=16	=16
1AA	1E	2A/]	2d/]
.	.	2A/	2c#i/
[1Al	[1Dl	1A	[1dl
=17	=17	=17	=17
0A]	0D]	0Al	0d]
!!LO:LB:i:g=z
=18||	=18||	=18||	=18||
*>B	*>B	*>B	*>B
*clefF4	*clefGv2	*clefGv2	*clefG2
*k[]	*k[]	*k[]	*k[]
*M2/1	*M2/1	*M2/1	*M2/1
*met(C)	*met(C)	*met(C)	*met(C)
!!section: Christe
!!!OMD: Christe
0r	0r	0G	0r
=19	=19	=19	=19
0r	0r	1G	0r
.	.	1A	.
=20	=20	=20	=20
0GG	0r	1.B	0r
.	.	2G/	.
=21	=21	=21	=21
1GG	0r	1B	0r
1AA	.	1c	.
=22	=22	=22	=22
1.BB	0r	1d	0r
.	.	2d\	.
2GG/	.	[2B\	.
=23	=23	=23	=23
1BB	0r	2B\]	0r
.	.	4A/	.
.	.	4G/	.
1C	.	2.A/	.
.	.	4G/	.
=24	=24	=24	=24
1.C	0r	4F/	0r
.	.	4E/	.
.	.	1F	.
[2BB/	.	[2D/	.
=25	=25	=25	=25
2BB/]	0r	2D/]	0r
4AA/	.	1G	.
4GG/	.	.	.
1AA	.	.	.
.	.	2F#i/	.
=26	=26	=26	=26
2.GG/	0r	4G/	0g
.	.	4A/	.
.	.	4B\	.
4AA/	.	4c\	.
2BB/	.	2d\	.
[2C/	.	[2e\	.
=27	=27	=27	=27
4C/]	0r	4e\]	1g
4D\	.	4d\	.
2E\	.	1g	.
1D	.	.	1a
.	.	2f#i\	.
=28	=28	=28	=28
1GG	0G	2g\	1.b
.	.	1d	.
1r	.	.	.
.	.	[2e\	2g/
=29	=29	=29	=29
0r	1G	2e\]	1b
.	.	2d\	.
.	1A	2.c\	1cc
.	.	4B\	.
=30	=30	=30	=30
1G	0B	1G	1.dd
[1G	.	[1d	.
.	.	.	[2b\
=31	=31	=31	=31
2G\]	1B	1d]	2b\]
2F\	.	.	2a/
1E	1c	1e	1g
=32	=32	=32	=32
1.D	0d	1A	2f/
.	.	.	4g/
.	.	.	4a/
.	.	2r	2b-i\
[2F\	.	[2A/	[2a/
=33	=33	=33	=33
2F\]	1d	2A/]	2a/]
2G\	.	2B\	4g/
.	.	.	4f/
2A\	1c	2c\	2e/
[2E\	.	[2G/	[2g/
=34	=34	=34	=34
4E\]	1B	2G/]	4g/]
4F\	.	.	4a/
2.G\	.	1d	2.b\
.	1G	.	.
4F\	.	.	4a/
4E\	.	2e\	[2cc\
4D\	.	.	.
=35	=35	=35	=35
2F\	0A	2d\	4cc\]
.	.	.	4b\
2E\	.	2c\	4a/
.	.	.	4g/
1D	.	1d	2.f#i/
.	.	.	4e/
=36	=36	=36	=36
0GGl	0Gl	0dl	0gl
!!LO:LB:i:g=z
=37||	=37||	=37||	=37||
*>C	*>C	*>C	*>C
*clefF4	*clefGv2	*clefGv2	*clefG2
*k[]	*k[]	*k[]	*k[]
*M2/1	*M2/1	*M2/1	*M2/1
*met(C)	*met(C)	*met(C)	*met(C)
!!section: Kyrie II
!!!OMD: Kyrie II
0G	1.d	1d	0r
.	.	[1d	.
.	2c\	.	.
=38	=38	=38	=38
1G	1B	2d\]	0r
.	.	2e\	.
1D	1A	1f	.
=39	=39	=39	=39
1GG	1G	1g	1.dd
1r	2B\	2d\	.
.	[2A/	[2f\	2cc\
=40	=40	=40	=40
0r	2A/]	2f\]	1b
.	2G/	1e	.
.	2F/	.	1a
.	2D/	[2d\	.
=41	=41	=41	=41
1r	1E	2d\]	1g
.	.	2c#i\	.
1D	1D	1d	2b\
.	.	.	[2a/
=42	=42	=42	=42
1C	1r	1e	2a/]
.	.	.	2g/
1D	1d	1A	2f/
.	.	.	2d/
=43	=43	=43	=43
1A	1c	1r	1e
1D	1d	1A	2.d/
.	.	.	4e/
=44	=44	=44	=44
0D	2A/	1d	2f/
.	2B\	.	2g/
.	2c\	1A	2a/
.	[2d\	.	[2b\
=45	=45	=45	=45
1r	2d\]	1.d	2b\]
.	4c\	.	4a/
.	4B\	.	4g/
1D	1A	.	2.f#i/
.	.	2c\	.
.	.	.	4e/
=46	=46	=46	=46
2E\	1G	1B	0g
2.G\	.	.	.
.	2.E/	1G	.
4F\	.	.	.
[2E\	.	.	.
.	4F/	.	.
=47	=47	=47	=47
2E\]	2G/	0r	0r
1D	2A/	.	.
.	2B\	.	.
2C/	[2A/	.	.
=48	=48	=48	=48
2D\	4A/]	0r	0r
.	4G/	.	.
2BB/	1G	.	.
1AA	.	.	.
.	2F#i/	.	.
=49	=49	=49	=49
0GG	0G	0r	0g
=50	=50	=50	=50
0D	0r	0d	1a
.	.	.	1f
=51	=51	=51	=51
1.C	0r	1e	0e
.	.	1c	.
2D\	.	.	.
=52	=52	=52	=52
0E	0G	0B	0g
=53	=53	=53	=53
0D	1A	0d	1f
.	1F	.	1d
=54	=54	=54	=54
1AA	0E	1c	0e
1C	.	1A	.
=55	=55	=55	=55
1GG	0G	1B	1d
1C	.	1c	1e
=56	=56	=56	=56
0D	1F	[0Al	2d/
.	.	.	2.f/
.	1D	.	.
.	.	.	4e/
.	.	.	[2d/
=57	=57	=57	=57
0AA	0E	0A_	2d/]
.	.	.	4c#i/
.	.	.	4B/
.	.	.	1c#i
=58	=58	=58	=58
0Al	0Dl	0A]	0dl
==	==	==	==
*-	*-	*-	*-
!!!RDF**kern: l=long note in original notation
!!!RDF**kern: i=editorial accidental
!!!ENC:	Chris Gage 10-23-2013
!!!END:	2013/10/27/
!!!EED:	Jesse Rodin
!!!EEV:	2014/01/03/
!!!ONB:	Translated from MusicXML and edited on 2014/01/03/ by Craig Sapp
!!muse2ps: T^@{OPR}^u^@{ONM}{. }@{OTL}^C^@{COM}^i2I150v85,85,85,150Q16
